blockchains/bitcoingold/logo.svg

<svg fill="none" height="250" viewBox="0 0 250 250" width="250" xmlns="http://www.w3.org/2000/svg" xmlns:xlink="http://www.w3.org/1999/xlink"><clipPath id="a"><path d="m0 0h250v250h-250z"/></clipPath><clipPath id="b"><path d="m0 0h250v249.988h-250z"/></clipPath><g clip-path="url(#a)"><g clip-path="url(#b)" clip-rule="evenodd" fill-rule="evenodd"><path d="m249.98 124.908c0 68.689-55.685 124.372-124.378 124.372s-124.37837-55.683-124.37837-124.372c0-68.69 55.68537-124.372478 124.37837-124.372478s124.378 55.682478 124.378 124.372478z" fill="#00176d"/><path d="m244.521 124.908c0 65.675-53.242 118.913-118.919 118.913-65.6781 0-118.91938-53.238-118.91938-118.913 0-65.674 53.24128-118.91386 118.91938-118.91386 65.677 0 118.919 53.23986 118.919 118.91386z" fill="#fff"/><path d="m238.003 124.908c0 62.074-50.324 112.395-112.401 112.395s-112.4003-50.321-112.4003-112.395c0-62.0747 50.3233-112.3955 112.4003-112.3955s112.401 50.3208 112.401 112.3955z" fill="#eca900"/><path d="m202.777 124.908c0 42.621-34.553 77.171-77.175 77.171-42.6227 0-77.1762-34.55-77.1762-77.171 0-42.6216 34.5535-77.1722 77.1762-77.1722 42.622 0 77.175 34.5506 77.175 77.1722z" fill="#fff"/><path d="m196.348 124.908c0 39.071-31.674 70.744-70.746 70.744-39.0731 0-70.7473-31.673-70.7473-70.744 0-39.0709 31.6742-70.7434 70.7473-70.7434 39.072 0 70.746 31.6725 70.746 70.7434z" fill="#00176d"/><path d="m118.054 157.353.261-25.049 33.482.349c6.853.062 12.388 5.671 12.388 12.511v.137c-.025 3.346-1.368 6.468-3.756 8.806-2.388 2.35-5.547 3.619-8.893 3.582zm34.166-66.0784c3.346.0373 6.48 1.3681 8.819 3.756 2.338 2.3879 3.606 5.5474 3.569 8.8924-.062 6.903-5.746 12.462-12.637 12.388h-.012l-33.483-.336.262-25.0487zm-4.142-28.0583c-5.037-1.8283-10.348-3.0596-15.87-3.6193-2.177-.2114-4.378-.3233-6.605-.3233-2.35 0-4.689.1243-6.977.3607-6.804.7213-13.284 2.475-19.3038 5.1116-6.4179 2.8108-12.2885 6.6042-17.4378 11.206l-1.505 1.4054c-12.587 11.9397-20.4229 28.8296-20.4229 47.5466 0 18.221 7.413 34.7 19.403 46.59.0125.012.0373.037.0622.05 5.3731 5.335 11.6791 9.738 18.6443 12.959 5.97 2.774 12.425 4.664 19.216 5.522 2.724.349 5.498.523 8.321.523 1.779 0 3.545-.075 5.286-.212 5.523-.435 10.834-1.554 15.883-3.271 25.859-8.805 44.466-33.306 44.466-62.161 0-28.3561-17.973-52.5091-43.16-61.6877z" fill="#fff"/><path d="m151.971 116.311h-.012l-33.482-.336.261-25.0486 33.482.3483c3.346.0373 6.48 1.3681 8.819 3.756 2.338 2.388 3.607 5.5473 3.569 8.8923-.062 6.903-5.746 12.462-12.637 12.388zm12.214 28.99c-.025 3.346-1.368 6.468-3.756 8.806-2.388 2.35-5.547 3.619-8.893 3.582l-33.482-.336.261-25.049 33.482.349c6.854.062 12.388 5.671 12.388 12.511zm16.767-41.216c.074-7.6986-2.849-14.9744-8.247-20.4841-5.398-5.5096-12.612-6.0942-20.323-6.1688l-4.428-.0498.124-14.1659c-5.037-1.8283-10.348-3.0596-15.87-3.6192l-.162 17.6235-13.582-.1368.162-17.4494c-6.804.7213-13.284 2.475-19.3037 5.1117l-.1119 11.3924-17.3259-.1865-1.505 1.4054-.1617 13.9296 18.8184.199-.6716 64.9089-18.8184-.199-.1866 15.298v.05h.0622l18.7562.199-.1119 12.76c5.9699 2.774 12.4249 4.664 19.2169 5.522l.161-18.842 13.619.137-.174 19.016c5.523-.435 10.834-1.554 15.883-3.271l.137-15.583 4.465.049c2.849.038 5.635-.348 8.284-1.107 4.552-1.306 8.731-1.243 12.201-4.651 5.51-5.385 8.583-12.599 8.657-20.31.087-8.109-3.209-15.472-8.557-20.77 5.46-5.186 8.905-12.487 8.993-20.608z" fill="#001d6d"/><g fill="#fff"><path d="m164.185 145.164v.137c-.024 3.346-1.368 6.468-3.756 8.806-2.388 2.35-5.547 3.619-8.893 3.582l-33.483-.336.262-25.049 33.482.349c6.854.062 12.388 5.671 12.388 12.511z"/><path d="m164.608 103.923c-.062 6.903-5.746 12.462-12.637 12.388h-.012l-33.482-.336.261-25.0486 33.482.3482c3.346.0373 6.48 1.3681 8.819 3.7561 2.338 2.3879 3.606 5.5473 3.569 8.8923z"/></g></g></g></svg>

<svg width="250" height="250" viewBox="0 0 250 250" fill="none" xmlns="http://www.w3.org/2000/svg">
<g clip-path="url(#clip0_9_629)">
<g clip-path="url(#clip1_9_629)">
<path fill-rule="evenodd" clip-rule="evenodd" d="M249.98 124.908C249.98 193.597 194.295 249.28 125.602 249.28C56.909 249.28 1.22363 193.597 1.22363 124.908C1.22363 56.218 56.909 0.535522 125.602 0.535522C194.295 0.535522 249.98 56.218 249.98 124.908Z" fill="#00176D"/>
<path fill-rule="evenodd" clip-rule="evenodd" d="M244.521 124.908C244.521 190.583 191.279 243.821 125.602 243.821C59.9239 243.821 6.68262 190.583 6.68262 124.908C6.68262 59.234 59.9239 5.99414 125.602 5.99414C191.279 5.99414 244.521 59.234 244.521 124.908Z" fill="white"/>
<path fill-rule="evenodd" clip-rule="evenodd" d="M238.003 124.908C238.003 186.982 187.679 237.303 125.602 237.303C63.525 237.303 13.2017 186.982 13.2017 124.908C13.2017 62.8333 63.525 12.5125 125.602 12.5125C187.679 12.5125 238.003 62.8333 238.003 124.908Z" fill="#ECA900"/>
<path fill-rule="evenodd" clip-rule="evenodd" d="M202.777 124.908C202.777 167.529 168.224 202.079 125.602 202.079C82.9793 202.079 48.4258 167.529 48.4258 124.908C48.4258 82.2864 82.9793 47.7358 125.602 47.7358C168.224 47.7358 202.777 82.2864 202.777 124.908Z" fill="white"/>
<path fill-rule="evenodd" clip-rule="evenodd" d="M196.348 124.908C196.348 163.979 164.674 195.652 125.602 195.652C86.5289 195.652 54.8547 163.979 54.8547 124.908C54.8547 85.8371 86.5289 54.1646 125.602 54.1646C164.674 54.1646 196.348 85.8371 196.348 124.908Z" fill="#00176D"/>
<path fill-rule="evenodd" clip-rule="evenodd" d="M118.054 157.353L118.315 132.304L151.797 132.653C158.65 132.715 164.185 138.324 164.185 145.164V145.301C164.16 148.647 162.817 151.769 160.429 154.107C158.041 156.457 154.882 157.726 151.536 157.689L118.054 157.353ZM152.22 91.2746C155.566 91.3119 158.7 92.6427 161.039 95.0306C163.377 97.4185 164.645 100.578 164.608 103.923C164.546 110.826 158.862 116.385 151.971 116.311H151.959L118.476 115.975L118.738 90.9263L152.22 91.2746ZM148.078 63.2163C143.041 61.388 137.73 60.1567 132.208 59.597C130.031 59.3856 127.83 59.2737 125.603 59.2737C123.253 59.2737 120.914 59.398 118.626 59.6344C111.822 60.3557 105.342 62.1094 99.3222 64.746C92.9043 67.5568 87.0337 71.3502 81.8844 75.952L80.3794 77.3574C67.7924 89.2971 59.9565 106.187 59.9565 124.904C59.9565 143.125 67.3695 159.604 79.3595 171.494C79.372 171.506 79.3968 171.531 79.4217 171.544C84.7948 176.879 91.1008 181.282 98.066 184.503C104.036 187.277 110.491 189.167 117.282 190.025C120.006 190.374 122.78 190.548 125.603 190.548C127.382 190.548 129.148 190.473 130.889 190.336C136.412 189.901 141.723 188.782 146.772 187.065C172.631 178.26 191.238 153.759 191.238 124.904C191.238 96.5479 173.265 72.3949 148.078 63.2163Z" fill="white"/>
<path fill-rule="evenodd" clip-rule="evenodd" d="M151.971 116.311H151.959L118.477 115.975L118.738 90.9264L152.22 91.2747C155.566 91.312 158.7 92.6428 161.039 95.0307C163.377 97.4187 164.646 100.578 164.608 103.923C164.546 110.826 158.862 116.385 151.971 116.311ZM164.185 145.301C164.16 148.647 162.817 151.769 160.429 154.107C158.041 156.457 154.882 157.726 151.536 157.689L118.054 157.353L118.315 132.304L151.797 132.653C158.651 132.715 164.185 138.324 164.185 145.164V145.301ZM180.952 104.085C181.026 96.3864 178.103 89.1106 172.705 83.6009C167.307 78.0913 160.093 77.5067 152.382 77.4321L147.954 77.3823L148.078 63.2164C143.041 61.3881 137.73 60.1568 132.208 59.5972L132.046 77.2207L118.464 77.0839L118.626 59.6345C111.822 60.3558 105.342 62.1095 99.3223 64.7462L99.2104 76.1386L81.8845 75.9521L80.3795 77.3575L80.2178 91.2871L99.0362 91.4861L98.3646 156.395L79.5462 156.196L79.3596 171.494V171.544H79.4218L98.178 171.743L98.0661 184.503C104.036 187.277 110.491 189.167 117.283 190.025L117.444 171.183L131.063 171.32L130.889 190.336C136.412 189.901 141.723 188.782 146.772 187.065L146.909 171.482L151.374 171.531C154.223 171.569 157.009 171.183 159.658 170.424C164.21 169.118 168.389 169.181 171.859 165.773C177.369 160.388 180.442 153.174 180.516 145.463C180.603 137.354 177.307 129.991 171.959 124.693C177.419 119.507 180.864 112.206 180.952 104.085Z" fill="#001D6D"/>
<path fill-rule="evenodd" clip-rule="evenodd" d="M164.185 145.164V145.301C164.161 148.647 162.817 151.769 160.429 154.107C158.041 156.457 154.882 157.726 151.536 157.689L118.053 157.353L118.315 132.304L151.797 132.653C158.651 132.715 164.185 138.324 164.185 145.164Z" fill="white"/>
<path fill-rule="evenodd" clip-rule="evenodd" d="M164.608 103.923C164.546 110.826 158.862 116.385 151.971 116.311H151.959L118.477 115.975L118.738 90.9264L152.22 91.2746C155.566 91.3119 158.7 92.6427 161.039 95.0307C163.377 97.4186 164.645 100.578 164.608 103.923Z" fill="white"/>
</g>
</g>
<defs>
<clipPath id="clip0_9_629">
<rect width="250" height="250" fill="white"/>
</clipPath>
<clipPath id="clip1_9_629">
<rect width="250" height="249.988" fill="white"/>
</clipPath>
</defs>
</svg>
